X: 16666
T: Hanter Dro
R: three-two
M: 3/2
K: Eminor
|:B2Bc B2A2 G3A|B2AG F2A2 G2E2|B2Bc B2A2 G3A|B2AG F2D2 E4:|
E2FG A2A2 B4|A2Bc e2dc B4|G2AB c2B2 A4|A2BA G2F2 G2E2|
E2FG A2A2 B4|A2Bc e2dc B4|G2AB c2B2 A4|A2BA G2F2 E4||

